X:1
T:The Famous Ballymote
M:C
L:1/8
Q:80
C:Trad. Arr. Graham Schmidt
S:Reel
K:HP
|: {g}c{d}A{g}eA{g}ce{g}e{A}e | \
ge{g}fd{g}Bc{gde}dB | \
{g}c{d}A{g}eA{g}ce{g}e{A}e |
ge{g}dB{g}BA{gAGAG}A2 :: \
{g}c{d}A{g}ce{ag}a2ea | \
ge{g}fd{g}Bc{gde}dB |
{g}c{d}A{g}ce{ag}a2ea | \
ge{g}dB{g}BA{gAGAG}A2 :: \
{gcecG}c2{g}eA{g}ce{g}e{A}e |
ge{g}fd{g}Bc{gde}dB | \
{gcecG}c2{g}eA{g}c{g}e{A}e | \
ge{g}dB{g}BA{gAGAG}A2:| [ |
{gcecG}c2ac{g}ec{g}A{d}c | \
ge{g}fd{g}Bc{gde}dB | \
{gcecG}c2ac{g}eA{d}ce |
ge{g}dB{g}BA{gAGAG}A2 | \
{gcecG}c2ac{g}ec{g}A{d}c | \
ge{g}fd{g}Bc{gde}dB |
{gcecG}c2acaA{d}ce | \
ge{g}dB{g}BA{gAGAG}A2 :|
